X: 2070
T: Goodbye Old Barn
R: reel
C: Rick Gagne
N: 1998 by whistling and on whistle
M: 4/4
Q: 1/4=175
K: Em
ef | "Em"ge~e2 gebe | "C"ge~e2 "D"a2ba | "Am"ge~e2 g2ag |1 "D"fgef d2 :|\
[2 "D"fgef d2cd ||
"Bm"Bdfd b2ba | "Am"gafg efge | "Bm"Bdfd b2ba |1 "C"gefd e2dc :|\
[2 "C"gefd e2 ||
